X: 9
T: Greig's Pipes
R: reel
M: 4/4
L: 1/8
K: Gmaj
|: B3A BAGA | B2GB AGEG | B3A BAGB |AcBG AGEG |
B3A BAGA | B2GB AGEG | Bd d2 eBdB | AcBG AGEG ||
|:DG G2 DGBG | DGBG AGEG | DGGF GABc | dBAc BG G2 |
AG G2 DGBG | DGBG AGEG | DGGF GABc | dBAc BG G2 ||
|:d2 (3Bcd egge | d2 BG AGEG |d2 (3Bcd eg g2 |agbg ageg |
d2 (3Bcd egge | d2 BG AGEG |d2 (3Bcd eg g2 |agab aged ||


Tune 605	Setting 21914

